X:13
T:No.95 My Love She's But A Lassie Yet.
C:lancer
L:1/8
M:4/4
K:D
fe||d2AGF2Ac|d2D2D2fe|d2AGF2BA|
G2B,2E2Bc|d2AGF2BA|G2g2f3e|
dcBA Bcde|[1f2d2dfec:|[2f2d2d2fg||
a2fag2eg|f2d2defg|a2fa gfga|
b2e2e2fg|a2fag2eg|f2dfe2ce|
dcBA ^GABc|[1d2D2D2fg:|[2d2fa gfec||
